X:1
T:The Fermoy Lasses
L:1/8
M:2/2
I:linebreak $
K:Emin
V:1 treble 
V:1
 BA |:"Em" GE E2 BE E2 | GE E2 BcBA | GE E2 BE E2 |"D" AFDF AcBA |$"Em" GE E2 BE E2 | GE E2 BcBA | %7
"Em" G3 F"G" GBdB |"D" AFDF AcBA :|$"G" G2 BG dGBA |"C" G2 Bd ef g2 |"G" G2 BG dGBG | %12
"D" AFDF AcBA |$"G" G2 BG dGBA |"C" G2 Bd ef g2 |"G" gage dedB |"D" AFDF AcBA :| %17
